images/next.svg

<svg width="30" height="30" viewBox="0 0 30 30" fill="none" xmlns="http://www.w3.org/2000/svg">
<path d="M15 30C23.2721 30 30 23.2721 30 15C30 6.72794 23.2721 0 15 0C6.72794 0 0 6.72794 0 15C0 23.2721 6.72794 30 15 30ZM15 1.21324C22.6042 1.21324 28.7868 7.39583 28.7868 15C28.7868 22.6042 22.6042 28.7868 15 28.7868C7.39583 28.7868 1.21324 22.6042 1.21324 15C1.21324 7.39583 7.39583 1.21324 15 1.21324Z" fill="#FAF8F5"/>
<path d="M12.8676 19.9816C12.9841 20.098 13.1434 20.1593 13.2966 20.1593C13.4498 20.1593 13.6091 20.098 13.7255 19.9816L18.2782 15.4289C18.3946 15.3125 18.4559 15.1593 18.4559 15C18.4559 14.8407 18.3946 14.6875 18.2782 14.5711L13.7255 10.0184C13.4865 9.77941 13.1066 9.77941 12.8676 10.0184C12.6287 10.2574 12.6287 10.6373 12.8676 10.8762L16.9914 15L12.8676 19.1238C12.6348 19.3627 12.6348 19.7488 12.8676 19.9816Z" fill="#FAF8F5"/>
</svg>

<svg width="30" height="30" fill="none" xmlns="http://www.w3.org/2000/svg"><path d="M15 30c8.272 0 15-6.728 15-15S23.272 0 15 0 0 6.728 0 15s6.728 15 15 15zm0-28.787c7.604 0 13.787 6.183 13.787 13.787 0 7.604-6.183 13.787-13.787 13.787-7.604 0-13.787-6.183-13.787-13.787C1.213 7.396 7.396 1.213 15 1.213z" fill="#FAF8F5"/><path d="M12.868 19.982a.614.614 0 00.429.177.613.613 0 00.428-.177l4.553-4.553a.603.603 0 000-.858l-4.552-4.553a.603.603 0 00-.858 0 .603.603 0 000 .858L16.99 15l-4.123 4.124a.614.614 0 000 .858z" fill="#FAF8F5"/></svg>
